X: 1
T: The Foggy Dew
R: barndance
M: 4/4
L: 1/8
K: Emin
B d | e2 d B | e2 d B | A2 B2 | D2 E F |
G B A G | E2 D2 | E4-|E2 B d | e2 d B | e2 d B |
A2 B2 | D2 E F | G B A G | E2 D2 | E4-|E2 F2 |
G2 B2 | d2 c B | A2 A2 | B2 G A | B2 g f|
e d B d | e4-| e2 B d|e2 d B | e2 d B |
A2 B2 | D2 E F | G B A G | E2 D2 | E2 z2|


Tune 2516	Setting 22820

